X:8
T:Sun Assembly THO1.008
M:2/4
L:1/8
Z:vmp. Peter Dunk 2012.from a transcription by Fynn Titford-Mock 2006
B:Thompson's Compleat Collection of 200 Favourite Country Dances Vol.I,1758
Q:1/4=120
K:A
a2 {f}e2|{d}c2 BA|f2A2|G2 FE|(Ac)(ec)|(B^d)(fa)|\
(ge)(f^d)|e2E2|a2 {f}e2|{d}c2 BA|f2A2|G2 FE|
(FA)(dF)|(EG)(Bd)|(cB)(AG)|A2A,2||(ce)(ag)|f2 ed|\
(ce)(ag)|f2 ed|(ce)(ag)|(Tgf)(Tfe)|
TedTdc|Tc2B2|(dc)(BA)|(G/A/B) E2|dcBA|\
(fg/a/) g2|fAaf|ecBA|E2G2|A4|]

